X:0626
T:Countess of Sutherland's Reel.
M:C|
L:1/8
Q:1/2=104
I: :: ||
Z:Jack Campin * www.campin.me.uk * 2009
K:D
f        |Td2 Ad BdAd|GdFd E(ee)f         |Td2 Ad  Bbag |faeg f(dd):|
a/b//c'//| d'afa gbeg|fadf e(AA) a/b//c'//| d'afa  gbeg |faeg fdd
a/b//c'//| d'afa gbeg|fadf eAAa           |Tb>abc' d'bag|faeg f(dd)|]

